icons/1_Primary/Koofr.svg

<svg xmlns="http://www.w3.org/2000/svg" viewBox="0 0 1024 1024">
   <circle cx="512" cy="512" r="512" style="fill:#71ba05"/>
   <path d="M669.9 362.4h-36v-14.5c0-35.5-28.9-64.4-64.4-64.4h-115c-35.5 0-64.4 28.9-64.4 64.4v14.5h-36c-35.5 0-64.4 28.9-64.4 64.4v215.4c0 35.5 28.9 64.4 64.4 64.4h315.8c35.5 0 64.4-28.9 64.4-64.4V426.8c0-35.5-28.9-64.4-64.4-64.4zM407.5 478.1l-32 164c-4.1 12.5-9.6 21.4-21.4 21.5-11.8 0-21.5-9.6-21.5-21.5V426.8c0-11.8 9.6-21.5 21.5-21.5H433v-57.5c0-11.8 9.6-21.5 21.5-21.5h114.9c11.8 0 21.5 9.6 21.5 21.5v57.5h79c11.8 0 21.5 9.6 21.5 21.5v22.3H444.9s-32 .3-37.4 29zm265.2 181.4-45.4-23.9-45.3 23.9 8.7-50.5-36.7-35.8 50.7-7.4 22.7-46 22.7 46 50.7 7.4L664 609l8.7 50.5z" style="fill:#fff"/>
</svg>

<svg width="1024" height="1024" viewBox="0 0 1024 1024" fill="none" xmlns="http://www.w3.org/2000/svg">
<g clip-path="url(#clip0_2_2622)">
<path d="M512 1024C794.77 1024 1024 794.77 1024 512C1024 229.23 794.77 0 512 0C229.23 0 0 229.23 0 512C0 794.77 229.23 1024 512 1024Z" fill="#98DC9A"/>
<path d="M669.9 362.4H633.9V347.9C633.9 312.4 605 283.5 569.5 283.5H454.5C419 283.5 390.1 312.4 390.1 347.9V362.4H354.1C318.6 362.4 289.7 391.3 289.7 426.8V642.2C289.7 677.7 318.6 706.6 354.1 706.6H669.9C705.4 706.6 734.3 677.7 734.3 642.2V426.8C734.3 391.3 705.4 362.4 669.9 362.4ZM407.5 478.1L375.5 642.1C371.4 654.6 365.9 663.5 354.1 663.6C342.3 663.6 332.6 654 332.6 642.1V426.8C332.6 415 342.2 405.3 354.1 405.3H433V347.8C433 336 442.6 326.3 454.5 326.3H569.4C581.2 326.3 590.9 335.9 590.9 347.8V405.3H669.9C681.7 405.3 691.4 414.9 691.4 426.8V449.1H444.9C444.9 449.1 412.9 449.4 407.5 478.1ZM672.7 659.5L627.3 635.6L582 659.5L590.7 609L554 573.2L604.7 565.8L627.4 519.8L650.1 565.8L700.8 573.2L664 609L672.7 659.5Z" fill="white"/>
</g>
<defs>
<clipPath id="clip0_2_2622">
<rect width="1024" height="1024" fill="white"/>
</clipPath>
</defs>
</svg>
